dist/img/arrow-accordion.svg

<svg width="22" height="22" viewBox="0 0 22 22" fill="none" xmlns="http://www.w3.org/2000/svg">
<path d="M19.3417 8.13534L11.6417 15.8583C11.55 15.9499 11.4507 16.015 11.3437 16.0535C11.2368 16.092 11.1222 16.1109 11 16.1103C10.8778 16.1103 10.7632 16.0914 10.6562 16.0535C10.5493 16.0156 10.45 15.9505 10.3583 15.8583L2.63541 8.13534C2.42152 7.92145 2.31457 7.65409 2.31457 7.33325C2.31457 7.01242 2.42916 6.73742 2.65832 6.50825C2.88749 6.27909 3.15485 6.1645 3.46041 6.1645C3.76596 6.1645 4.03332 6.27909 4.26249 6.50825L11 13.2458L17.7375 6.50825C17.9514 6.29437 18.2151 6.18742 18.5286 6.18742C18.8421 6.18742 19.1131 6.302 19.3417 6.53117C19.5708 6.76034 19.6854 7.0277 19.6854 7.33325C19.6854 7.63881 19.5708 7.90617 19.3417 8.13534Z" fill="#222831"/>
</svg>

<svg width="22" height="22" fill="none" xmlns="http://www.w3.org/2000/svg"><path d="M19.342 8.135l-7.7 7.723a.81.81 0 01-.298.195.992.992 0 01-.344.057c-.122 0-.237-.019-.344-.056a.796.796 0 01-.298-.196L2.635 8.135a1.088 1.088 0 01-.32-.802c0-.32.114-.596.343-.825a1.1 1.1 0 01.802-.343 1.1 1.1 0 01.802.343L11 13.246l6.738-6.738a1.07 1.07 0 01.79-.32c.314 0 .585.114.814.343.229.23.343.497.343.802a1.1 1.1 0 01-.343.802z" fill="#222831"/></svg>
